la/wizards-of-the-coast.svg

<svg xmlns="http://www.w3.org/2000/svg" viewBox="0 0 32 32" height="1em" width="1em">
  <path d="M 15.900391 6.0996094 C 13.000391 6.0996094 10.599219 6.7007812 10.199219 6.8007812 C 10.599219 6.9007812 10.900781 7.0003906 11.300781 7.4003906 L 11.400391 7.4003906 C 11.700391 7.3003906 13.800391 6.6992188 16.900391 6.6992188 C 25.900391 6.6992188 32 12.500391 32 17.900391 L 32 18.400391 C 32 18.500391 31.999609 18.500391 32.099609 18.400391 L 32.099609 17.400391 C 31.999609 13.200391 27.200391 6.0996094 15.900391 6.0996094 z M 17.099609 7.1992188 C 6.8996094 7.1992188 0.7 14.000781 0 14.800781 C -0.1 14.800781 -0.1 14.800391 0 14.900391 C 3 15.700391 7.8007812 19 9.8007812 25 L 9.9003906 25 C 12.700391 21.5 16.899219 18.599609 21.699219 18.599609 C 25.699219 18.599609 28.199219 20.699609 28.199219 22.599609 C 28.199219 23.499609 27.899609 24.300391 27.099609 24.900391 C 27.799609 24.400391 28.5 23.5 28.5 22.5 C 28.5 21.4 27.900391 20.599609 27.900391 20.599609 C 28.300391 20.999609 28.400391 21.400391 28.400391 21.400391 C 28.700391 19.400391 29.699219 18.300781 29.699219 18.300781 C 29.599219 17.800781 29.400391 17.400391 29.400391 17.400391 C 29.800391 17.800391 30.099609 18.8 30.099609 19.5 C 30.099609 20 29.9 20.6 29.5 21 C 29.9 20.8 30.300781 20.299219 30.300781 19.199219 C 30.300781 18.399219 30.099609 17.900391 30.099609 17.900391 C 30.399609 17.600391 30.700391 17.400781 30.900391 17.300781 C 30.900391 17.500781 31 17.8 31 18 C 31 18.1 30.999609 18.1 31.099609 18 L 31.099609 17.199219 C 31.399609 16.999219 31.599609 17 31.599609 17 C 30.899609 11.5 24.499609 7.1992188 17.099609 7.1992188 z M 15 7.5996094 L 14 10.699219 C 16.1 9.4992188 18.099609 8.9003906 20.599609 8.9003906 C 23.999609 9.0003906 28.999609 11 30.599609 16 C 30.099609 14.5 27.6 9.6 21 9.5 C 18.3 9.4 16.300391 10.300391 14.400391 11.400391 L 18.699219 10.900391 L 14 12 L 15.300781 13 L 15.099609 12.199219 C 15.499609 12.099219 17.100391 11.800781 18.400391 11.800781 L 17.300781 15.800781 C 18.000781 15.800781 18.200781 15.399219 18.300781 14.699219 L 18.5 14.599609 L 18.5 15.900391 C 17.4 16.100391 16.6 16.200391 16 16.400391 L 16.699219 14.199219 L 13.599609 12.400391 L 13.699219 12.800781 L 14.199219 13 C 14.499219 13.9 15.199219 15.800391 15.199219 15.900391 C 15.299219 16.100391 15.400781 16.199609 15.800781 16.099609 L 15.900391 16.300781 C 15.100391 16.500781 14.700391 16.7 13.900391 17 L 13.800781 16.800781 C 14.000781 16.700781 14.199609 16.599219 14.099609 16.199219 C 12.899609 13.099219 13 13.299219 13 13.199219 L 13.099609 13 L 14.800781 16.400391 C 14.600781 15.800391 14.899219 16.5 13.199219 12.5 L 11.099609 16.900391 L 11.300781 16.199219 L 9.5 14.099609 L 10.900391 18.800781 L 10.300781 19.199219 C 4.7007813 14.099219 4.9996094 14.300781 4.5996094 14.300781 C 4.2996094 14.300781 3.9003906 14.599609 3.9003906 14.599609 L 3.6992188 14.300781 C 5.1992188 13.100781 5.2996094 13.099219 6.5996094 12.199219 L 6.8007812 12.599609 C 6.8007812 12.599609 6.5003906 12.8 6.4003906 13 C 6.1003906 13.5 6.5 13.700781 9.5 16.800781 L 8.5996094 13.900391 L 10.599609 13.400391 L 11.900391 14.900391 L 12.099609 14.300781 L 11.900391 13.099609 L 12.599609 12.900391 L 12.599609 13.099609 L 12.800781 12.599609 L 8 13.800781 L 8.5996094 13.599609 L 7.9003906 11.5 L 8.8007812 11 L 10.300781 12.800781 L 11.699219 12.099609 C 11.599219 11.699609 11.6 11.399609 11.5 11.099609 L 12.400391 11.800781 L 12.599609 11.699219 L 9.5996094 9.5996094 L 10.800781 10.199219 C 11.700781 9.8992187 12.100391 9.7992187 12.400391 9.6992188 L 12.5 10.199219 C 11.9 10.799219 12.600781 10.999219 12.800781 11.199219 L 12.099609 8.0996094 L 12.699219 9.5 C 12.899219 9.4 13.099609 9.4003906 13.099609 9.4003906 L 13.199219 9.8007812 C 13.199219 9.8007812 13.000391 9.9003906 12.900391 9.9003906 L 13.300781 10.900391 L 15 7.5996094 z M 10.400391 10.199219 L 10.900391 10.599609 C 10.900391 10.599609 10.700781 10.599219 10.300781 10.699219 L 10.199219 10.300781 C 10.199219 10.300781 10.300391 10.299219 10.400391 10.199219 z M 20.210938 11.642578 C 21.05 11.619141 21.650781 11.75 21.800781 12.5 L 21.800781 13.099609 C 21.800781 13.199609 21.699219 14.000781 21.699219 14.300781 L 21.699219 15.300781 C 21.699219 15.400781 21.700781 15.499609 21.800781 15.599609 C 21.900781 15.699609 22.099609 15.699219 22.099609 15.699219 C 22.499609 15.699219 22.5 15.400391 22.5 15.400391 C 22.5 15.400391 22.699219 12.699609 22.699219 12.599609 C 22.699219 12.399609 22.5 12.400391 22.5 12.400391 L 22.5 12 C 22.5 12 23.500391 12.200391 23.900391 12.400391 L 23.800781 13.300781 C 23.800781 13.300781 24.299609 12.800781 24.599609 12.800781 C 24.899609 12.700781 25.300781 13.199219 25.300781 13.199219 L 24.699219 13.800781 C 24.099219 13.500781 23.699219 13.800781 23.699219 13.800781 C 23.399219 15.700781 23.300391 15.899609 23.900391 16.099609 L 23.900391 16.300781 C 23.000391 16.000781 22.999609 16.000391 22.099609 15.900391 C 21.499609 15.800391 21.599609 15.900781 21.099609 15.800781 C 20.899609 15.500781 21.000391 15.600391 20.900391 15.400391 C 20.700391 15.400391 20.500781 15.599219 20.300781 15.699219 C 20.100781 15.799219 19.900781 15.800781 19.800781 15.800781 C 19.800781 15.800781 19.200391 15.900781 18.900391 15.300781 C 18.600391 14.800781 18.899219 13.999219 19.199219 13.699219 C 19.599219 13.299219 20.399609 13.200781 20.599609 12.800781 C 20.999609 12.300781 19.899609 11.7 19.099609 12.5 L 19 12.5 L 19.300781 11.699219 C 19.625781 11.674219 19.93125 11.650391 20.210938 11.642578 z M 26.900391 11.800781 C 27.500391 12.300781 27.7 12.500781 28 12.800781 C 26.7 16.500781 26.500781 16.8 26.800781 17 L 26.699219 17.199219 C 26.399219 16.999219 26.300781 17.000781 25.800781 16.800781 L 25.900391 16.5 C 25.900391 16.5 25.700391 16.699219 25.400391 16.699219 C 24.400391 16.699219 24.200391 15.099609 24.900391 14.099609 C 25.500391 13.199609 26.399609 13.300391 26.599609 13.900391 L 27 12.599609 C 27.1 12.299609 26.900781 12.1 26.800781 12 L 26.900391 11.800781 z M 17.148438 12.1875 C 16.75 12.1875 15.999219 12.299219 15.699219 13.199219 L 16.800781 14.099609 L 17.400391 12.199219 C 17.375391 12.199219 17.28125 12.1875 17.148438 12.1875 z M 20.699219 13.400391 C 20.699219 13.400391 20.1 13.700391 20 13.900391 C 19.8 14.100391 19.599609 14.399219 19.599609 14.699219 C 19.599609 15.099219 19.799609 15.199219 20.099609 15.199219 C 20.399609 15.199219 20.599609 15.100391 20.599609 14.900391 C 20.599609 14.700391 20.699219 13.400391 20.699219 13.400391 z M 26.099609 13.800781 C 25.599609 13.700781 25.299219 15 25.199219 15.5 C 25.199219 15.8 25.1 16.199219 25.5 16.199219 C 25.8 16.299219 26 16.3 26.5 14.5 C 26.6 14.2 26.499609 13.900781 26.099609 13.800781 z M 12.800781 13.900391 L 13.400391 17.400391 L 12.800781 17.699219 L 11.599609 16.300781 L 12.300781 15 L 12.5 15.199219 L 12.300781 14.800781 L 12.800781 13.900391 z M 28 15.300781 C 28.7 15.200781 29.199219 16.099609 29.199219 16.099609 L 28.800781 16.5 L 28.699219 16.400391 C 28.699219 16.300391 28.800781 16.2 28.800781 16 C 28.800781 15.5 28.199219 15.400781 28.199219 15.800781 C 28.199219 16.000781 28.599609 16.799219 28.599609 17.199219 C 28.599609 17.699219 28.300391 18 27.900391 18 C 27.500391 18 26.900391 17.5 26.900391 17.5 L 27.099609 16.800781 L 27.199219 16.900391 C 27.099219 17.800391 28.100391 17.899219 27.900391 17.199219 C 27.800391 16.999219 27 15.500781 28 15.300781 z M 19.599609 16.300781 C 19.599609 16.400781 19.599219 16.499609 19.699219 16.599609 C 19.599219 16.499609 19.500391 16.399609 18.900391 16.599609 C 18.900391 16.699609 19 16.899609 19 17.099609 C 19.5 16.999609 19.2 17.1 19.5 17 L 19.5 17.300781 C 19.3 17.200781 19.4 17.300781 19 17.300781 C 19 17.400781 19.099609 17.800391 19.099609 17.900391 C 19.185396 17.900391 19.622112 17.891891 19.8125 17.765625 C 19.80102 17.802746 19.800781 17.851789 19.800781 17.900391 C 19.600781 17.900391 19.099219 17.999609 18.699219 18.099609 L 18.699219 17.900391 C 18.599219 17.500391 18.5 16.999609 18.5 16.599609 C 18.5 16.499609 18.500391 16.500391 18.400391 16.400391 C 18.900391 16.300391 19.399609 16.300781 19.599609 16.300781 z M 21.599609 16.339844 C 21.755859 16.350781 21.924609 16.4 22.099609 16.5 C 22.199609 16.5 22.199219 16.700781 22.199219 16.800781 C 21.899219 16.300781 21.199609 16.399609 21.099609 17.099609 C 20.999609 17.999609 21.799609 18.099609 22.099609 17.599609 C 22.099609 17.699609 22 17.900391 22 17.900391 C 21.5 18.200391 20.599219 17.8 20.699219 17 C 20.774219 16.625 21.130859 16.307031 21.599609 16.339844 z M 17.699219 16.5 C 17.599219 16.6 17.599219 16.599219 17.699219 16.699219 C 17.799219 16.999219 17.9 17.7 18 18 C 18.1 18.2 18.099219 18.200781 18.199219 18.300781 C 17.999219 18.400781 17.899219 18.400391 17.699219 18.400391 L 17.699219 18.199219 C 17.599219 17.999219 17.5 17.6 17.5 17.5 C 17.3 17.5 17.100391 17.599219 16.900391 17.699219 C 16.900391 17.799219 17.099609 18.200391 17.099609 18.400391 C 17.099609 18.500391 17.199219 18.499609 17.199219 18.599609 C 16.999219 18.699609 16.799219 18.700781 16.699219 18.800781 C 16.799219 18.700781 16.799219 18.699609 16.699219 18.599609 C 16.599219 18.399609 16.299219 17.399219 16.199219 17.199219 C 16.199219 17.099219 16.099609 17 16.099609 17 C 16.299609 16.9 16.399609 16.900781 16.599609 16.800781 L 16.599609 17 C 16.699609 17.2 16.700781 17.4 16.800781 17.5 C 17.000781 17.4 17.300391 17.400781 17.400391 17.300781 L 17.300781 16.800781 C 17.300781 16.700781 17.199219 16.599609 17.199219 16.599609 C 17.399219 16.499609 17.599219 16.5 17.699219 16.5 z M 23.160156 16.566406 C 23.242969 16.563281 23.325391 16.574609 23.400391 16.599609 C 23.900391 16.699609 24.000391 17.199609 23.900391 17.599609 C 23.800391 17.999609 23.5 18.199609 23 18.099609 C 22.6 17.999609 22.3 17.599609 22.5 17.099609 C 22.65 16.724609 22.911719 16.575781 23.160156 16.566406 z M 23.400391 16.699219 C 23.300391 16.699219 22.900781 16.699219 22.800781 17.199219 C 22.700781 17.499219 22.799609 17.900391 23.099609 17.900391 C 23.299609 18.000391 23.499219 17.900391 23.699219 17.400391 C 23.799219 16.900391 23.600391 16.699219 23.400391 16.699219 z M 24.699219 17 C 24.799219 17 24.999609 17.099609 25.099609 17.099609 C 25.099609 17.099609 25.1 17.000391 25 18.400391 C 25.1 18.500391 25.099609 18.499609 25.099609 18.599609 C 24.999609 18.599609 24.699219 18.5 24.699219 18.5 L 24.800781 18.400391 L 24.800781 18 C 24.600781 17.9 24.500391 17.900391 24.400391 17.900391 C 24.300391 18.000391 24.299219 18.099219 24.199219 18.199219 L 24.199219 18.400391 C 24.099219 18.400391 24.000391 18.300781 23.900391 18.300781 L 24 18.199219 C 24.2 17.999219 24.499219 17.499219 24.699219 17.199219 L 24.699219 17 z M 15.599609 17.199219 L 15.800781 17.400391 C 15.600781 17.300391 15.399219 17.4 15.199219 17.5 C 15.799219 19.1 15.800391 19.099609 15.900391 19.099609 C 15.700391 19.199609 15.600391 19.200781 15.400391 19.300781 C 15.500391 19.200781 15.500781 19.199219 14.800781 17.699219 C 14.800781 17.699219 14.400781 17.899609 14.300781 18.099609 L 14.199219 17.800781 C 14.599219 17.600781 15.499609 17.199219 15.599609 17.199219 z M 24.900391 17.199219 C 24.800391 17.299219 24.599609 17.599219 24.599609 17.699219 C 24.699609 17.699219 24.800391 17.800781 24.900391 17.800781 L 24.900391 17.199219 z M 26.050781 17.525391 C 26.200781 17.550391 26.350391 17.650781 26.400391 17.800781 L 26.400391 18 C 26.400391 17.7 26.1 17.599219 26 17.699219 C 25.9 17.799219 26.099609 17.899609 26.099609 18.099609 C 26.199609 18.199609 26.199219 18.399609 26.199219 18.599609 C 26.099219 18.899609 25.600391 18.899609 25.400391 18.599609 L 25.5 18.400391 C 25.5 18.700391 25.800391 18.899609 25.900391 18.599609 C 26.000391 18.499609 25.900781 18.299219 25.800781 18.199219 C 25.700781 18.099219 25.599219 17.899219 25.699219 17.699219 C 25.749219 17.549219 25.900781 17.500391 26.050781 17.525391 z M 27 18 C 27.2 18.1 27.499609 18.300391 27.599609 18.400391 L 27.400391 18.699219 C 27.300391 18.499219 27.399219 18.6 27.199219 18.5 C 27.099219 18.7 26.900781 19.000781 26.800781 19.300781 C 26.700781 19.400781 26.700781 19.5 26.800781 19.5 L 26.5 19.300781 L 26.599609 19.199219 C 26.799609 18.899219 26.899609 18.600781 27.099609 18.300781 C 26.999609 18.200781 27.000781 18.199219 26.800781 18.199219 L 27 18 z M 13.400391 18.199219 L 13.599609 18.400391 L 13.300781 18.400391 C 13.200781 18.400391 12.899219 18.600781 12.699219 18.800781 L 12.699219 18.900391 C 12.799219 19.000391 12.9 19.200391 13 19.400391 C 13.5 19.100391 13.399609 19.2 13.599609 19 C 13.599609 19.1 13.599219 19.100781 13.699219 19.300781 C 13.499219 19.300781 13.499609 19.299609 13.099609 19.599609 C 13.599609 20.499609 13.699219 20.400391 13.699219 20.400391 C 13.599219 20.500391 13.399219 20.599219 13.199219 20.699219 C 13.299219 20.499219 13.100781 20.399609 12.300781 19.099609 C 12.200781 18.999609 12.099609 19 12.099609 19 C 12.499609 18.7 12.900391 18.499219 13.400391 18.199219 z M 21.951172 18.839844 C 19.428711 18.826172 16.399609 19.712891 13.599609 21.900391 L 13.599609 22 C 13.699609 22.2 13.800781 22.5 13.800781 23 C 17.000781 20.1 20.4 19.200391 23 19.400391 C 25.9 19.600391 28 21.100781 28 22.800781 C 28 23.300781 27.900781 23.600781 27.800781 23.800781 C 27.900781 23.600781 27.999609 23.300781 28.099609 22.800781 C 28.299609 20.900781 26.1 19.200391 23 18.900391 C 22.6625 18.862891 22.311523 18.841797 21.951172 18.839844 z M 11.417969 19.550781 C 11.919531 19.480469 12.35 19.874609 12.5 20.099609 C 12.4 20.099609 12.999219 20.899609 12.199219 21.599609 C 11.599219 21.999609 10.999219 21.800391 10.699219 21.400391 C 10.299219 20.900391 10.400391 20.200781 10.900391 19.800781 C 11.075391 19.650781 11.250781 19.574219 11.417969 19.550781 z M 11.255859 19.878906 C 11.162109 19.888281 11.075 19.925 11 20 C 10.9 20.1 10.4 20.399219 11 21.199219 C 11.2 21.499219 11.699609 21.8 12.099609 21.5 C 12.399609 21.3 12.499609 20.900781 12.099609 20.300781 C 11.874609 20.075781 11.537109 19.850781 11.255859 19.878906 z"/>
</svg>

<svg xmlns="http://www.w3.org/2000/svg" viewBox="0 0 32 32" height="1em" width="1em">
  <path d="M15.9 6.1c-2.9 0-5.3.6-5.7.7.4.1.7.2 1.1.6h.1c.3-.1 2.4-.7 5.5-.7 9 0 15.1 5.8 15.1 11.2v.5c0 .1 0 .1.1 0v-1C32 13.2 27.2 6.1 15.9 6.1zm1.2 1.1C6.9 7.2.7 14 0 14.8c-.1 0-.1 0 0 .1C3 15.7 7.8 19 9.8 25h.1c2.8-3.5 7-6.4 11.8-6.4 4 0 6.5 2.1 6.5 4 0 .9-.3 1.7-1.1 2.3.7-.5 1.4-1.4 1.4-2.4 0-1.1-.6-1.9-.6-1.9.4.4.5.8.5.8.3-2 1.3-3.1 1.3-3.1a4 4 0 0 0-.3-.9c.4.4.7 1.4.7 2.1 0 .5-.2 1.1-.6 1.5.4-.2.8-.7.8-1.8 0-.8-.2-1.3-.2-1.3.3-.3.6-.5.8-.6 0 .2.1.5.1.7 0 .1 0 .1.1 0v-.8c.3-.2.5-.2.5-.2-.7-5.5-7.1-9.8-14.5-9.8zm-2.1.4-1 3.1c2.1-1.2 4.1-1.8 6.6-1.8C24 9 29 11 30.6 16c-.5-1.5-3-6.4-9.6-6.5-2.7-.1-4.7.8-6.6 1.9l4.3-.5L14 12l1.3 1-.2-.8c.4-.1 2-.4 3.3-.4l-1.1 4c.7 0 .9-.4 1-1.1l.2-.1v1.3c-1.1.2-1.9.3-2.5.5l.7-2.2-3.1-1.8.1.4.5.2c.3.9 1 2.8 1 2.9.1.2.2.3.6.2l.1.2c-.8.2-1.2.4-2 .7l-.1-.2c.2-.1.4-.2.3-.6-1.2-3.1-1.1-2.9-1.1-3l.1-.2 1.7 3.4c-.2-.6.1.1-1.6-3.9l-2.1 4.4.2-.7-1.8-2.1 1.4 4.7-.6.4c-5.6-5.1-5.3-4.9-5.7-4.9-.3 0-.7.3-.7.3l-.2-.3c1.5-1.2 1.6-1.2 2.9-2.1l.2.4s-.3.2-.4.4c-.3.5.1.7 3.1 3.8l-.9-2.9 2-.5 1.3 1.5.2-.6-.2-1.2.7-.2v.2l.2-.5L8 13.8l.6-.2-.7-2.1.9-.5 1.5 1.8 1.4-.7c-.1-.4-.1-.7-.2-1l.9.7.2-.1-3-2.1 1.2.6c.9-.3 1.3-.4 1.6-.5l.1.5c-.6.6.1.8.3 1l-.7-3.1.6 1.4c.2-.1.4-.1.4-.1l.1.4s-.2.1-.3.1l.4 1L15 7.6zm-4.6 2.6.5.4s-.2 0-.6.1l-.1-.4s.1 0 .2-.1zm9.81 1.443c.84-.024 1.44.107 1.59.857v.6c0 .1-.1.9-.1 1.2v1c0 .1 0 .2.1.3.1.1.3.1.3.1.4 0 .4-.3.4-.3s.2-2.7.2-2.8c0-.2-.2-.2-.2-.2V12s1 .2 1.4.4l-.1.9s.5-.5.8-.5c.3-.1.7.4.7.4l-.6.6c-.6-.3-1 0-1 0-.3 1.9-.4 2.1.2 2.3v.2c-.9-.3-.9-.3-1.8-.4-.6-.1-.5 0-1-.1-.2-.3-.1-.2-.2-.4-.2 0-.4.2-.6.3-.2.1-.4.1-.5.1 0 0-.6.1-.9-.5-.3-.5 0-1.3.3-1.6.4-.4 1.2-.5 1.4-.9.4-.5-.7-1.1-1.5-.3H19l.3-.8c.326-.026.631-.05.91-.057zm6.69.158c.6.5.8.7 1.1 1-1.3 3.7-1.5 3.999-1.2 4.199l-.1.2c-.3-.2-.4-.2-.9-.4l.1-.3s-.2.2-.5.2c-1 0-1.2-1.6-.5-2.6.6-.9 1.5-.8 1.7-.2l.4-1.3c.1-.3-.1-.5-.2-.6l.1-.2zm-9.752.386c-.398 0-1.149.112-1.449 1.012l1.102.9.6-1.9c-.026 0-.12-.011-.253-.011zM20.7 13.4s-.599.3-.699.5c-.2.2-.4.5-.4.8 0 .4.2.5.5.5s.5-.1.5-.3c0-.2.1-1.5.1-1.5zm5.4.4c-.5-.1-.8 1.2-.9 1.7 0 .3-.099.7.301.7.3.1.5.1 1-1.7.1-.3 0-.6-.4-.7zm-13.298.1.6 3.5-.6.3-1.201-1.4.7-1.3.2.2-.2-.4.5-.9zM28 15.3c.7-.1 1.2.8 1.2.8l-.4.4-.1-.1c0-.1.1-.2.1-.4 0-.5-.6-.6-.6-.2 0 .2.4 1 .4 1.4 0 .5-.3.8-.7.8-.4 0-1-.5-1-.5l.2-.7.1.1c-.1.9.9 1 .7.3-.1-.2-.9-1.7.1-1.9zm-8.4 1c0 .1 0 .2.1.3-.1-.1-.2-.2-.8 0 0 .1.1.3.1.5.5-.1.2 0 .5-.1v.3c-.2-.1-.1 0-.5 0 0 .1.1.5.1.6.085 0 .522-.008.712-.134a.491.491 0 0 0-.011.134c-.2 0-.702.1-1.102.2v-.2c-.1-.4-.199-.9-.199-1.3 0-.1 0-.1-.1-.2.5-.1 1-.1 1.2-.1zm2 .04c.156.01.325.06.5.16.1 0 .1.2.1.3-.3-.5-1-.4-1.1.3-.1.9.7 1 1 .5 0 .1-.1.3-.1.3-.5.3-1.4-.1-1.3-.9a.844.844 0 0 1 .9-.66zm-3.9.16c-.1.1-.1.1 0 .2.1.3.2 1 .3 1.3.1.2.1.2.2.3-.2.1-.3.1-.5.1v-.2c-.1-.2-.2-.6-.2-.7-.2 0-.4.1-.6.2 0 .1.2.5.2.7 0 .1.1.1.1.2-.2.1-.4.1-.5.2.1-.1.1-.1 0-.2-.1-.2-.4-1.2-.5-1.4 0-.1-.1-.2-.1-.2.2-.1.3-.1.5-.2v.2c.1.2.1.4.2.5.2-.1.5-.1.6-.2l-.1-.5c0-.1-.1-.2-.1-.2.2-.1.4-.1.5-.1zm5.46.066a.683.683 0 0 1 .24.034c.5.1.6.6.5 1-.1.4-.4.6-.9.5-.4-.1-.7-.5-.5-1 .15-.375.412-.524.66-.534zm.24.133c-.1 0-.5 0-.6.5-.1.3 0 .701.3.701.2.1.4 0 .6-.5.1-.5-.1-.7-.3-.7zm1.3.301c.1 0 .3.1.4.1 0 0 0-.1-.1 1.3.1.1.1.1.1.2-.1 0-.4-.1-.4-.1l.1-.1V18c-.2-.1-.3-.1-.4-.1-.1.1-.1.2-.2.3v.2c-.1 0-.2-.1-.3-.1l.1-.1c.2-.2.5-.7.7-1V17zm-9.1.2.2.2c-.2-.1-.4 0-.6.1.6 1.6.6 1.6.7 1.6-.2.1-.3.1-.5.2.1-.1.1-.1-.6-1.6 0 0-.4.2-.5.4l-.1-.3c.4-.2 1.3-.6 1.4-.6zm9.3 0c-.1.1-.3.4-.3.5.1 0 .2.1.3.1v-.6zm1.15.325c.15.025.3.126.35.276V18c0-.3-.3-.4-.4-.3-.1.1.1.2.1.4.1.1.1.3.1.5-.1.3-.6.3-.8 0l.1-.2c0 .3.3.5.4.2.1-.1 0-.3-.1-.4-.1-.1-.2-.3-.1-.5.05-.15.2-.2.35-.175zM27 18c.2.1.5.3.6.4l-.2.3c-.1-.2 0-.1-.2-.2-.1.2-.3.5-.4.8-.1.1-.1.2 0 .2l-.3-.2.1-.1c.2-.3.3-.6.5-.9-.1-.1-.1-.1-.3-.1l.2-.2zm-13.6.2.2.2h-.3c-.1 0-.4.2-.6.4v.1c.1.1.2.3.3.5.5-.3.4-.2.6-.4 0 .1 0 .1.1.3-.2 0-.2 0-.6.3.5.9.6.8.6.8-.1.1-.3.2-.5.3.1-.2-.1-.3-.9-1.6-.1-.1-.2-.1-.2-.1.4-.3.8-.5 1.3-.8zm8.551.64c-2.522-.014-5.551.873-8.351 3.06v.1c.1.2.2.5.2 1 3.2-2.9 6.6-3.8 9.2-3.6 2.9.2 5 1.7 5 3.4 0 .5-.1.8-.2 1 .1-.2.2-.5.3-1 .2-1.9-2-3.6-5.1-3.9a10 10 0 0 0-1.049-.06zm-10.533.71c.502-.07.932.325 1.082.55-.1 0 .5.8-.3 1.5-.6.4-1.2.2-1.5-.2-.4-.5-.3-1.2.2-1.6.175-.15.35-.226.518-.25zm-.162.329A.409.409 0 0 0 11 20c-.1.1-.6.4 0 1.2.2.3.7.6 1.1.3.3-.2.4-.6 0-1.2-.225-.224-.563-.45-.844-.421z"/>
</svg>
